!!!!SEGMENT: pl-gd--ee-1638--002-040_marenzio-luca--motettorum-pro-festis-totius-anni-in-festo-confess-non-pont-similabo-eum-viro-sapienti.krn
!!!cenid: 15xx:1043
!!!COM: Marenzio, Luca
!!!COM-rismID: pe30003955
!!!CDT: ~1553-1599/08/22
!!!CNT: Italian
!!!GTL: Motettorum pro festis totius anni
!!!OTL: In festo Confess. Non Pont./Similabo eum viro sapienti
!!!OMV: 040
!!!PDT: 1588
!!!AGN:
!!!SMS-siglum: PL-GD
!!!SMS-shelfmark: Ee 1638
!!!SMS-variant:
!!!SMS-altvar:
!!!SMS-shelfwork: 002-040 G
!!!NIFC-rismSourceID: 990039238
!!!NIFC-islandoraID: pl-gd:57883
!!!URL-pdf-islandora: https://repozytorium.nifc.pl/islandora/object/pl-gd%3A57883/datastream/PDF/view
!!!URL-scan: https://polish.musicsources.pl/pl/lokalizacje/galeria/klocki-introligatorskie/655 @EN{Scan on Polish Music Herritage in Open Access Website} @PL{Skany w portalu Dziedzictwo Muzyki Polskiej w otwartym dostępie}
!!!ONB-nifc: UWAGA: Cantus: s. 636 (lewa), Altus: s. 484 (lewa), Tenor: s. 332 (lewa), Bassus: s. 180 (lewa)
!!!AIN: 1 alto 1 bass 1 soprn 1 tenor
!!!key: F
**kern	**text	**kern	**text	**kern	**text	**kern	**text
*part4	*part4	*part3	*part3	*part2	*part2	*part1	*part1
*staff4	*staff4	*staff3	*staff3	*staff2	*staff2	*staff1	*staff1
*I"BASSUS	*	*I"TENOR	*	*I"ALTUS	*	*I"CANTUS	*
*I'B	*	*I'T	*	*I'A	*	*I'S	*
*ICvox	*	*ICvox	*	*ICvox	*	*ICvox	*
*Ibass	*	*Itenor	*	*Ialto	*	*Isoprn	*
*clefF4	*	*clefC4	*	*clefC3	*	*clefC1	*
*k[b-]	*	*k[b-]	*	*k[b-]	*	*k[b-]	*
*F:	*	*F:	*	*F:	*	*F:	*
*M2/2	*	*M2/2	*	*M2/2	*	*M2/2	*
*met(c)	*	*met(c|)	*	*met(c|)	*	*met(c|)	*
=1-	=1-	=1-	=1-	=1-	=1-	=1-	=1-
!LO:TX:a:t=In festo Confeſſ. non Pont.	!	!LO:TX:a:t=In festo Confeſſ. non Pont.	!	!LO:TX:a:t=In festo Confeſſ. non Pont.	!	!LO:TX:a:t=In festo Confeſſ. non Pont.	!
00r	.	00r	.	1r	.	0g	SI-
=2-	=2-	=2-	=2-	=2-	=2-	=2-	=2-
.	.	.	.	0e	Si-	.	.
=3-	=3-	=3-	=3-	=3-	=3-	=3-	=3-
.	.	.	.	.	.	1e	-mi-
=4-	=4-	=4-	=4-	=4-	=4-	=4-	=4-
.	.	.	.	1A	-mi-	1.a	-la-
=5-	=5-	=5-	=5-	=5-	=5-	=5-	=5-
00r	.	00r	.	1.d	-la-	.	.
.	.	.	.	.	.	2f/	-bo
=6-	=6-	=6-	=6-	=6-	=6-	=6-	=6-
.	.	.	.	.	.	1a	e-
.	.	.	.	2A/	-bo	.	.
=7-	=7-	=7-	=7-	=7-	=7-	=7-	=7-
.	.	.	.	1c	e-	2g/	-um
.	.	.	.	.	.	1cc\	vi-
=8-	=8-	=8-	=8-	=8-	=8-	=8-	=8-
.	.	.	.	2F/	-um	.	.
.	.	.	.	2f\	vi-	2a\	-ro
=9-	=9-	=9-	=9-	=9-	=9-	=9-	=9-
00r	.	0r	.	2e\	-ro	1cc	ſa-
.	.	.	.	1f\	ſa-	.	.
=10-	=10-	=10-	=10-	=10-	=10-	=10-	=10-
.	.	.	.	.	.	2a\	-pien-
.	.	.	.	2d\	-pien-	2.b-\	.
=11-	=11-	=11-	=11-	=11-	=11-	=11-	=11-
.	.	0c	SI-	2e\	.	.	.
.	.	.	.	.	.	4a\	.
.	.	.	.	1f\	.	4a\	.
.	.	.	.	.	.	8g/	.
.	.	.	.	.	.	8f/	.
=12-	=12-	=12-	=12-	=12-	=12-	=12-	=12-
.	.	.	.	.	.	1g	.
.	.	.	.	4e\	.	.	.
.	.	.	.	4d\	.	.	.
=13-	=13-	=13-	=13-	=13-	=13-	=13-	=13-
00r	.	1A	-mi-	4e\	.	2cc\	-ti
.	.	.	.	4c/	.	.	.
!	!	!	!	!LO:SIC:v:t=custos f	!	!	!
!	!	!	!	!LO:LB:g=original	!	!	!
.	.	.	.	2.f\	.	1a\	ſa-
=14-	=14-	=14-	=14-	=14-	=14-	=14-	=14-
.	.	1.d	-la-	.	.	.	.
.	.	.	.	4e\	.	.	.
.	.	.	.	4d\	.	2f/	-pi-
.	.	.	.	4c/	.	.	.
=15-	=15-	=15-	=15-	=15-	=15-	=15-	=15-
*	*	*	*	*	*	*lig	*
!	!	!	!	!	!	!LO:LB:g=original	!
.	.	.	.	4B-/	.	1b-	-en-
.	.	.	.	4G/	.	.	.
.	.	2B-\	-bo	2.g\	.	.	.
=16-	=16-	=16-	=16-	=16-	=16-	=16-	=16-
.	.	1d	e-	.	.	3%2a	.
.	.	.	.	4f\	.	.	.
.	.	.	.	1f\	.	.	.
*	*	*	*	*	*	*Xlig	*
.	.	.	.	.	.	6g/	.
.	.	.	.	.	.	6f/	.
=17-	=17-	=17-	=17-	=17-	=17-	=17-	=17-
0C	SI-	1c	-um	.	.	1g	.
.	.	.	.	4e\	.	.	.
.	.	.	.	4d\	.	.	.
=18-	=18-	=18-	=18-	=18-	=18-	=18-	=18-
.	.	2r	.	1e	.	1g	ti
.	.	1c\	vi-	.	.	.	.
=19-	=19-	=19-	=19-	=19-	=19-	=19-	=19-
0AA	-mi-	.	.	0e	ti	2r	.
.	.	2A/	-ro	.	.	1cc\	Si-
=20-	=20-	=20-	=20-	=20-	=20-	=20-	=20-
.	.	1c	ſa-	.	.	.	.
.	.	.	.	.	.	1a\	-mi-
=21-	=21-	=21-	=21-	=21-	=21-	=21-	=21-
0D	-la-	2A/	-pien-	0f	vi-	.	.
.	.	2.B-\	.	.	.	1dd\	-la-
=22-	=22-	=22-	=22-	=22-	=22-	=22-	=22-
.	.	.	.	.	.	.	.
.	.	4A/	.	.	.	.	.
.	.	4A/	.	.	.	2a\	-bo
.	.	8G/	.	.	.	.	.
.	.	8F/	.	.	.	.	.
=23-	=23-	=23-	=23-	=23-	=23-	=23-	=23-
!	!	!LO:SIC:v:t=custos G	!	!	!	!	!
!	!	!LO:LB:g=original	!	!	!	!	!
0BB-	-bo	4G/	.	1d	-ro	2b-\	e-
.	.	4D/	.	.	.	.	.
.	.	2.F/	.	.	.	2f/	-um
=24-	=24-	=24-	=24-	=24-	=24-	=24-	=24-
.	.	.	.	2d\	ſa-	1b-	vi-
.	.	4E/	.	.	.	.	.
.	.	4D/	.	2f\	-pien-	.	.
.	.	4E/	.	.	.	.	.
=25-	=25-	=25-	=25-	=25-	=25-	=25-	=25-
0D	e-	4F/	.	1.f	.	2a\	-ro
.	.	4G/	.	.	.	.	.
.	.	1A\	.	.	.	2f/	ſa-
=26-	=26-	=26-	=26-	=26-	=26-	=26-	=26-
.	.	.	.	.	.	2a\	-pien-
.	.	4G/	.	4e\	.	2.b-\	.
.	.	4F/	.	4d\	.	.	.
=27-	=27-	=27-	=27-	=27-	=27-	=27-	=27-
0C	-um	0c	-ti	4e\	.	.	.
.	.	.	.	4c\	.	4a\	.
.	.	.	.	2.f\	.	4a\	.
.	.	.	.	.	.	8g/	.
.	.	.	.	.	.	8f/	.
=28-	=28-	=28-	=28-	=28-	=28-	=28-	=28-
*	*	*	*	*	*	*lig	*
.	.	.	.	.	.	1g	.
.	.	.	.	8e\	.	.	.
.	.	.	.	8d\	.	.	.
.	.	.	.	2e\	.	.	.
=29-	=29-	=29-	=29-	=29-	=29-	=29-	=29-
0F	vi-	2.c\	.	2f\	-ti	3%2a	.
!	!	!	!	!LO:SIC:v:t=custos c	!	!	!
!	!	!	!	!LO:LB:g=original	!	!	!
.	.	.	.	1c\	Si-	.	.
*	*	*	*	*	*	*Xlig	*
.	.	.	.	.	.	3b-\	.
.	.	4B-\	.	.	.	.	.
=30-	=30-	=30-	=30-	=30-	=30-	=30-	=30-
.	.	4A\	.	.	.	1cc	.
.	.	4B-\	.	.	.	.	.
.	.	4c\	.	2A/	-mi-	.	.
.	.	4A\	.	.	.	.	.
=31-	=31-	=31-	=31-	=31-	=31-	=31-	=31-
0D	-ro	4B-\	.	2d\	-la-	2.f/	ti
.	.	4A\	.	.	.	.	.
.	.	1d\	.	2f\	-bo	.	.
.	.	.	.	.	.	4g/	.
=32-	=32-	=32-	=32-	=32-	=32-	=32-	=32-
!	!	!	!	!	!	!LO:SIC:v:t=custos a	!
!	!	!	!	!	!	!LO:LB:g=original	!
.	.	.	.	1d	e-	0.a	.
.	.	4c\	.	.	.	.	.
.	.	4B-\	.	.	.	.	.
=33-	=33-	=33-	=33-	=33-	=33-	=33-	=33-
0F	ſa-	2A/	.	2.c/	.	.	.
.	.	1c\	Si-	.	.	.	.
.	.	.	.	4B-/	.	.	.
=34-	=34-	=34-	=34-	=34-	=34-	=34-	=34-
.	.	.	.	4A/	.	.	.
.	.	.	.	4B-/	.	.	.
.	.	2A/	-mi-	2c/	-um	.	.
=35-	=35-	=35-	=35-	=35-	=35-	=35-	=35-
0F	-pien-	2d\	-la-	1A	vi-	2r	.
.	.	2c\	-bo	.	.	1cc\	Si-
=36-	=36-	=36-	=36-	=36-	=36-	=36-	=36-
!	!	!LO:SIC:v:t=custos A	!	!	!	!	!
!	!	!LO:LB:g=original	!	!	!	!	!
.	.	4A/	e-	1c	-ro	.	.
.	.	4B-\	.	.	.	.	.
.	.	4c\	.	.	.	2a\	-mi-
.	.	4A/	.	.	.	.	.
=37-	=37-	=37-	=37-	=37-	=37-	=37-	=37-
0BB-	.	4B-\	.	2r	.	2dd\	-la-
.	.	4c\	.	.	.	.	.
.	.	2.d\	.	1f\	ſa-	2b-\	-bo
=38-	=38-	=38-	=38-	=38-	=38-	=38-	=38-
.	.	.	.	.	.	1dd	e-
.	.	4c\	.	.	.	.	.
.	.	2B-\	-um	1f\	-pien-	.	.
=39-	=39-	=39-	=39-	=39-	=39-	=39-	=39-
!LO:SIC:v:t=custos F	!	!	!	!	!	!	!
!LO:LB:g=original	!	!	!	!	!	!	!
0F	ti	2A/	Si-	.	.	1cc	-um
.	.	1c\	-mi-	2.a\	.	.	.
=40-	=40-	=40-	=40-	=40-	=40-	=40-	=40-
.	.	.	.	.	.	1cc	vi-
.	.	.	.	4g\	.	.	.
.	.	2A/	-la-	2.f\	.	.	.
=41-	=41-	=41-	=41-	=41-	=41-	=41-	=41-
00r	.	1.d	-bo	.	.	2a\	-ro
.	.	.	.	4e\	.	.	.
.	.	.	.	4d\	.	2b-\	ſa-
.	.	.	.	4e\	.	.	.
=42-	=42-	=42-	=42-	=42-	=42-	=42-	=42-
.	.	.	.	4f\	.	2a\	-pien-
.	.	.	.	4d\	.	.	.
.	.	2B-\	.	2.g\	.	2.b-\	.
=43-	=43-	=43-	=43-	=43-	=43-	=43-	=43-
.	.	1d	-e-	.	.	.	.
.	.	.	.	4f\	.	4a\	.
.	.	.	.	2.f\	.	4a\	.
.	.	.	.	.	.	8g/	.
.	.	.	.	.	.	8f/	.
=44-	=44-	=44-	=44-	=44-	=44-	=44-	=44-
.	.	1c	-um	.	.	1g	.
.	.	.	.	8e\	.	.	.
.	.	.	.	8d\	.	.	.
.	.	.	.	2e\	.	.	.
=45-	=45-	=45-	=45-	=45-	=45-	=45-	=45-
!	!	!	!	!LO:SIC:v:t=custos f	!	!	!
!	!	!	!	!LO:LB:g=original	!	!	!
0F	Si-	2r	.	2.f\	ti	1a	-ti
.	.	1c\	vi-	.	.	.	.
.	.	.	.	8e\	.	.	.
.	.	.	.	8d\	.	.	.
=46-	=46-	=46-	=46-	=46-	=46-	=46-	=46-
.	.	.	.	1c	.	2r	.
.	.	2A/	-ro	.	.	1a\	ſa-
=47-	=47-	=47-	=47-	=47-	=47-	=47-	=47-
0D	-mi-	1d	ſa-	2r	.	.	.
.	.	.	.	2.f\	ſa-	2a\	-pien-
=48-	=48-	=48-	=48-	=48-	=48-	=48-	=48-
.	.	2d\	-pien-	.	.	1a	-ti
.	.	.	.	4e\	.	.	.
.	.	2.f\	.	4d\	.	.	.
.	.	.	.	4c/	.	.	.
=49-	=49-	=49-	=49-	=49-	=49-	=49-	=49-
!	!	!	!	!LO:N:acc=#	!	!	!
0G	-la-	.	.	2Bn/	.	0g	.
.	.	4e\	.	.	.	.	.
.	.	4e\	.	1c\	-pien-	.	.
.	.	8d\	.	.	.	.	.
.	.	8c\	.	.	.	.	.
=50-	=50-	=50-	=50-	=50-	=50-	=50-	=50-
!	!	!LO:SIC:v:t=custos D	!	!	!	!	!
!	!	!LO:LB:g=original	!	!	!	!	!
.	.	2.d\	.	.	.	.	.
!	!	!	!	!LO:N:acc=#	!	!	!
.	.	.	.	2Bn/	-ti	.	.
.	.	4e\	.	.	.	.	.
=51-	=51-	=51-	=51-	=51-	=51-	=51-	=51-
0F	-bo	2.f\	.	4c/	.	2r	.
.	.	.	.	4B-/	.	.	.
.	.	.	.	4A/	.	2cc\	Si-
.	.	8e\	.	4G/	.	.	.
.	.	8d\	.	.	.	.	.
=52-	=52-	=52-	=52-	=52-	=52-	=52-	=52-
.	.	4c\	.	1A	.	2a\	-mi-
.	.	4F/	.	.	.	.	.
.	.	1f\	.	.	.	1dd\	-la-
=53-	=53-	=53-	=53-	=53-	=53-	=53-	=53-
0A	e-	.	.	2r	.	.	.
!	!	!	!	!	!	!LO:SIC:v:t=custos cc	!
!	!	!	!	!	!	!LO:LB:g=original	!
.	.	4e\	.	1c\	Si-	4cc\	.
.	.	4d\	.	.	.	4b-\	.
=54-	=54-	=54-	=54-	=54-	=54-	=54-	=54-
.	.	2c\	.	.	.	4a\	.
.	.	.	.	.	.	4b-\	.
.	.	2F/	-ti	2A/	-mi-	4cc\	.
.	.	.	.	.	.	4a\	.
=55-	=55-	=55-	=55-	=55-	=55-	=55-	=55-
0G	-um	1r	.	2d\	la-	4b-\	.
.	.	.	.	.	.	4cc\	.
.	.	.	.	2B-/	-bo	4dd\	.
.	.	.	.	.	.	4cc\	.
=56-	=56-	=56-	=56-	=56-	=56-	=56-	=56-
.	.	0G	Si-	1d	e-	4b-\	.
.	.	.	.	.	.	4a\	.
.	.	.	.	.	.	4g/	.
.	.	.	.	.	.	4f/	.
=57-	=57-	=57-	=57-	=57-	=57-	=57-	=57-
0C	vi-	.	.	1c	-um	2e/	.
.	.	.	.	.	.	2e/	-bo
=58-	=58-	=58-	=58-	=58-	=58-	=58-	=58-
.	.	1E	-mi-	2r	.	1g	e-
.	.	.	.	1e\	vi-	.	.
=59-	=59-	=59-	=59-	=59-	=59-	=59-	=59-
0AA	-ro	2A/	-la-	.	.	2c/	-um
.	.	2c\	-bo	2A/	-ro	1e/	vi-
=60-	=60-	=60-	=60-	=60-	=60-	=60-	=60-
.	.	1A	e-	1c	ſa-	.	.
.	.	.	.	.	.	2f/	-ro
=61-	=61-	=61-	=61-	=61-	=61-	=61-	=61-
!	!	!	!	!LO:SIC:v:t=custos c	!	!	!
!	!	!	!	!LO:LB:g=original	!	!	!
0C	ſa-	2G/	-um	1c	-pien-	2.e/	ſa-
.	.	1G/	vi-	.	.	.	.
.	.	.	.	.	.	4d/	.
=62-	=62-	=62-	=62-	=62-	=62-	=62-	=62-
.	.	.	.	2.c/	.	4e/	.
.	.	.	.	.	.	4f/	.
.	.	2E/	-ro	.	.	1g/	.
.	.	.	.	4d\	.	.	.
=63-	=63-	=63-	=63-	=63-	=63-	=63-	=63-
0C	-pien-	1G	ſa-	4e\	.	.	.
.	.	.	.	4f\	.	.	.
.	.	.	.	4g\	.	2e/	-pien-
.	.	.	.	4f\	.	.	.
=64-	=64-	=64-	=64-	=64-	=64-	=64-	=64-
.	.	2G/	-pien-	2.e\	.	2.cc\	.
.	.	2.c\	.	.	.	.	.
.	.	.	.	4d\	.	4b-\	.
=65-	=65-	=65-	=65-	=65-	=65-	=65-	=65-
0FF	.	.	.	0c	.	4a\	.
.	.	4B-\	.	.	.	4g/	.
.	.	4A/	.	.	.	4f/	.
.	.	4G/	.	.	.	4e/	.
=66-	=66-	=66-	=66-	=66-	=66-	=66-	=66-
!	!	!LO:SIC:v:t=custos A	!	!	!	!	!
!	!	!LO:LB:g=original	!	!	!	!	!
.	.	1A	.	.	.	1f	.
=67-	=67-	=67-	=67-	=67-	=67-	=67-	=67-
!	!	!	!	!	!	!LO:SIC:v:t=custos e	!
!	!	!	!	!	!	!LO:LB:g=original	!
00C	-ti	0.G	-ti	1c	ti	1e	-ti
=68-	=68-	=68-	=68-	=68-	=68-	=68-	=68-
.	.	.	.	2r	.	2r	.
.	.	.	.	1e\	qui	1g/	qui
=69-	=69-	=69-	=69-	=69-	=69-	=69-	=69-
.	.	.	.	.	.	.	.
.	.	.	.	2e\	ae-	2g/	ae-
=70-	=70-	=70-	=70-	=70-	=70-	=70-	=70-
.	.	1r	.	2e\	-di-	2g/	-di-
.	.	.	.	2e\	-fi-	2g/	-fi-
=71-	=71-	=71-	=71-	=71-	=71-	=71-	=71-
00r	.	1r	.	1f	-ca-	1a	-ca-
=72-	=72-	=72-	=72-	=72-	=72-	=72-	=72-
.	.	1.c	qui	2e\	-vit	1g	-vit
.	.	.	.	4c/	do-	.	.
.	.	.	.	4d\	.	.	.
=73-	=73-	=73-	=73-	=73-	=73-	=73-	=73-
.	.	.	.	4e\	.	4c/	do-
.	.	.	.	4f\	.	4d/	.
.	.	2c\	ae-	2g\	.	4e/	.
.	.	.	.	.	.	4f/	.
=74-	=74-	=74-	=74-	=74-	=74-	=74-	=74-
.	.	2c\	-di-	1e	-mu(m)	4g/	.
.	.	.	.	.	.	4e/	.
.	.	2c\	-fi-	.	.	1a\	.
=75-	=75-	=75-	=75-	=75-	=75-	=75-	=75-
0r	.	1d	-ca-	1f	ſu-	.	.
.	.	.	.	.	.	4g/	.
.	.	.	.	.	.	4f/	.
=76-	=76-	=76-	=76-	=76-	=76-	=76-	=76-
.	.	2c\	-vit	0e	-am	2g/	.
.	.	4C/	do-	.	.	2g/	mu(m)
.	.	4D/	.	.	.	.	.
=77-	=77-	=77-	=77-	=77-	=77-	=77-	=77-
0C	qui	4E/	.	.	.	1g	ſu-
.	.	4F/	.	.	.	.	.
.	.	4G/	.	.	.	.	.
.	.	4E/	.	.	.	.	.
=78-	=78-	=78-	=78-	=78-	=78-	=78-	=78-
.	.	2A/	.	2r	.	1e	-am
!	!	!	!	!LO:SIC:v:t=custos c	!	!	!
!	!	!	!	!LO:LB:g=original	!	!	!
.	.	2G/	-mu(m)	2.c/	ſu-	.	.
=79-	=79-	=79-	=79-	=79-	=79-	=79-	=79-
0C	ae-	2c\	ſu-	.	.	2r	.
.	.	.	.	4A/	-pra	.	.
.	.	2C/	-am	2G/	pe-	2.cc\	ſu-
=80-	=80-	=80-	=80-	=80-	=80-	=80-	=80-
.	.	2r	.	4c/	-tram	.	.
.	.	.	.	4d\	.	4a\	-pra
.	.	2.c\	ſu-	4e\	.	2g/	pe-
.	.	.	.	4f\	.	.	.
=81-	=81-	=81-	=81-	=81-	=81-	=81-	=81-
0C	-di-	.	.	1e	.	2c/	-tram
.	.	4A/	-pra	.	.	.	.
!	!	!	!	!	!	!LO:SIC:v:t=custos cc	!
!	!	!	!	!	!	!LO:LB:g=original	!
.	.	2G/	pe-	.	.	2.cc\	/ſu-
=82-	=82-	=82-	=82-	=82-	=82-	=82-	=82-
.	.	2C/	-tra(m)	2r	.	.	.
.	.	.	.	.	.	4a\	-pra
.	.	1c\	qui	1e\	qui	2g/	pe-
=83-	=83-	=83-	=83-	=83-	=83-	=83-	=83-
0C	fi-	.	.	.	.	2c/	-tram/
.	.	2c\	ae-	2e\	ae-	2.cc\	/ſu-
=84-	=84-	=84-	=84-	=84-	=84-	=84-	=84-
!	!	!LO:SIC:v:t=custos c	!	!	!	!	!
!	!	!LO:LB:g=original	!	!	!	!	!
.	.	2c\	-di-	2e\	-di-	.	.
.	.	.	.	.	.	4a\	-am
.	.	2c\	-fi-	2e\	-fi-	2g/	pe-
=85-	=85-	=85-	=85-	=85-	=85-	=85-	=85-
!LO:SIC:v:t=custos D	!	!	!	!	!	!	!
!LO:LB:g=original	!	!	!	!	!	!	!
0D	-ca-	4F/	-ca-	0f	-ca-	4b-\	.
.	.	4E/	.	.	.	8a\	.
.	.	.	.	.	.	8g\	.
.	.	4D/	.	.	.	4f/	.
.	.	4E/	.	.	.	4g/	.
=86-	=86-	=86-	=86-	=86-	=86-	=86-	=86-
.	.	4F/	.	.	.	1a	-tram/
.	.	4G/	.	.	.	.	.
.	.	4A/	.	.	.	.	.
.	.	4B-\	.	.	.	.	.
=87-	=87-	=87-	=87-	=87-	=87-	=87-	=87-
0C	-vit	1c	.	2e\	-vit	2r	.
.	.	.	.	4c/	do-	1cc\	qui
.	.	.	.	4d\	.	.	.
=88-	=88-	=88-	=88-	=88-	=88-	=88-	=88-
.	.	2G/	-vit	4e\	.	.	.
.	.	.	.	4f\	.	.	.
.	.	1c\	do-	2g\	-mu(m)	2cc\	ae-
=89-	=89-	=89-	=89-	=89-	=89-	=89-	=89-
0F	do-	.	.	1a	ſu-	2cc\	-di-
.	.	1A\	-mum	.	.	2cc\	-fi-
=90-	=90-	=90-	=90-	=90-	=90-	=90-	=90-
.	.	.	.	0.f	-am	1dd	-ca-
.	.	2.B-\	ſu-	.	.	.	.
=91-	=91-	=91-	=91-	=91-	=91-	=91-	=91-
0F	-mum	.	.	.	.	2cc\	-vit
.	.	8A/	.	.	.	.	.
.	.	8G/	.	.	.	.	.
.	.	4A/	.	.	.	4f/	do-
.	.	4B-\	.	.	.	4g/	.
=92-	=92-	=92-	=92-	=92-	=92-	=92-	=92-
.	.	2c\	.	.	.	4a\	.
.	.	.	.	.	.	4b-\	.
.	.	2A/	-am	.	.	2cc\	.
=93-	=93-	=93-	=93-	=93-	=93-	=93-	=93-
0G	ſu-	2r	.	2.d\	.	2b-\	-mum
!	!	!	!	!	!	!LO:SIC:v:t=custos g	!
!	!	!	!	!	!	!LO:LB:g=original	!
.	.	2.B-\	ſu-	.	.	2.g/	ſu-
.	.	.	.	4c/	.	.	.
=94-	=94-	=94-	=94-	=94-	=94-	=94-	=94-
.	.	.	.	1B-	.	.	.
.	.	4c\	.	.	.	4a\	.
.	.	4d\	.	.	.	4b-\	.
.	.	4e\	.	.	.	4g/	.
=95-	=95-	=95-	=95-	=95-	=95-	=95-	=95-
00F	-am	2f\	.	2r	.	0a	.
!	!	!	!	!LO:SIC:v:t=custos f	!	!	!
!	!	!	!	!LO:LB:g=original	!	!	!
.	.	2c\	-am	2.f\	ſu-	.	.
=96-	=96-	=96-	=96-	=96-	=96-	=96-	=96-
.	.	2r	.	.	.	.	.
.	.	.	.	4d\	-pra	.	.
!	!	!LO:SIC:v:t=custos f	!	!	!	!	!
!	!	!LO:LB:g=original	!	!	!	!	!
.	.	2.f\	ſu	2c/	pe-	.	.
=97-	=97-	=97-	=97-	=97-	=97-	=97-	=97-
.	.	.	.	2.F/	-tram	1a	-am
.	.	4d\	pra	.	.	.	.
.	.	1c\	pe-	.	.	.	.
.	.	.	.	4G/	.	.	.
=98-	=98-	=98-	=98-	=98-	=98-	=98-	=98-
.	.	.	.	1A	.	2r	.
.	.	2F/	-tram	.	.	2.cc\	ſu-
=99-	=99-	=99-	=99-	=99-	=99-	=99-	=99-
00r	.	1.c	qui	2r	.	.	.
.	.	.	.	.	.	4a\	-pra
.	.	.	.	1e\	qui	2g/	pe-
=100-	=100-	=100-	=100-	=100-	=100-	=100-	=100-
.	.	.	.	.	.	2c/	-tram
.	.	2c\	ae-	2e\	ae-	2.cc\	/ſu-
=101-	=101-	=101-	=101-	=101-	=101-	=101-	=101-
.	.	2c\	-di-	2e\	-di-	.	.
.	.	.	.	.	.	4a\	-pra
.	.	2c\	-fi-	2e\	-fi-	2g/	pe-
=102-	=102-	=102-	=102-	=102-	=102-	=102-	=102-
.	.	1d	-ca-	1f	-ca-	4f/	.
.	.	.	.	.	.	4g/	.
.	.	.	.	.	.	4a\	.
.	.	.	.	.	.	4b-\	.
=103-	=103-	=103-	=103-	=103-	=103-	=103-	=103-
00r	.	2c\	-vit	2e\	-vit	1cc	-tram/
.	.	4F/	do-	4A/	do-	.	.
.	.	4G/	.	4B-/	.	.	.
=104-	=104-	=104-	=104-	=104-	=104-	=104-	=104-
.	.	4A/	.	4c/	.	2r	.
.	.	4B-\	.	4d\	.	.	.
.	.	1c\	.	4e\	.	1g/	qui
.	.	.	.	4c/	.	.	.
=105-	=105-	=105-	=105-	=105-	=105-	=105-	=105-
.	.	.	.	1d	.	.	.
!	!	!LO:N:acc=#	!	!	!	!	!
.	.	2Bn\	-mu(m)	.	.	2g/	ae-
=106-	=106-	=106-	=106-	=106-	=106-	=106-	=106-
.	.	1c	ſu-	1e	-mum	2g/	-di-
.	.	.	.	.	.	2g/	-fi-
=107-	=107-	=107-	=107-	=107-	=107-	=107-	=107-
0r	.	1F	-am	1f	ſu-	1a	-ca-
=108-	=108-	=108-	=108-	=108-	=108-	=108-	=108-
!	!	!	!	!	!	!LO:SIC:v:t=custos g	!
!	!	!	!	!	!	!LO:LB:g=original	!
.	.	2r	.	1e	-am	2g/	-vit
.	.	2.c\	ſu-	.	.	4e/	do-
.	.	.	.	.	.	4d/	.
=109-	=109-	=109-	=109-	=109-	=109-	=109-	=109-
00C	ſu-	.	.	2r	.	4e/	.
.	.	4A/	-pra	.	.	4f/	.
!	!	!	!	!LO:SIC:v:t=custos c	!	!	!
!	!	!	!	!LO:LB:g=original	!	!	!
.	.	2G/	pe-	2.c/	ſu-	2g/	.
=110-	=110-	=110-	=110-	=110-	=110-	=110-	=110-
.	.	2C/	-tram	.	.	1e	-mu(m)
.	.	.	.	4A/	-pra	.	.
.	.	2.c\	/ſu-	2G/	pe-	.	.
=111-	=111-	=111-	=111-	=111-	=111-	=111-	=111-
.	.	.	.	2c/	-tram	0e	ſu-
.	.	4A/	-pra	.	.	.	.
!	!	!LO:SIC:v:t=custos G	!	!	!	!	!
!	!	!LO:LB:g=original	!	!	!	!	!
.	.	2G/	pe-	2.c/	/ſu-	.	.
=112-	=112-	=112-	=112-	=112-	=112-	=112-	=112-
.	.	2C/	-tram/	.	.	.	.
.	.	.	.	4A/	-pra	.	.
.	.	2.c\	do-	2G/	pe-	.	.
=113-	=113-	=113-	=113-	=113-	=113-	=113-	=113-
00AA	-pra	.	.	2.A/	-tram	2e/	-am
.	.	4B-\	.	.	.	.	.
.	.	4A\	.	.	.	2.cc\	do-
.	.	4G/	.	4B-/	ſu-	.	.
=114-	=114-	=114-	=114-	=114-	=114-	=114-	=114-
.	.	2F/	.	0.c	-pra	.	.
.	.	.	.	.	.	4b-\	.
.	.	2E/	-mu(m)	.	.	4a\	.
.	.	.	.	.	.	4g/	.
=115-	=115-	=115-	=115-	=115-	=115-	=115-	=115-
.	.	2.A/	ſu-	.	.	2f/	.
.	.	.	.	.	.	2e/	-mu(m)
.	.	8G/	.	.	.	.	.
.	.	8F/	.	.	.	.	.
=116-	=116-	=116-	=116-	=116-	=116-	=116-	=116-
.	.	4E/	.	.	.	1a	ſu-
.	.	4D/	.	.	.	.	.
.	.	4E/	.	.	.	.	.
.	.	4F/	.	.	.	.	.
=117-	=117-	=117-	=117-	=117-	=117-	=117-	=117-
00GG	pe-	1G	.	2r	.	1d	-am
.	.	.	.	1g\	pe-	.	.
=118-	=118-	=118-	=118-	=118-	=118-	=118-	=118-
.	.	2D/	-am	.	.	2.g/	ſu-
.	.	1G/	ſu-	2e\	-tram	.	.
.	.	.	.	.	.	4a\	.
=119-	=119-	=119-	=119-	=119-	=119-	=119-	=119-
.	.	.	.	2d\	ſu-	2b-\	.
.	.	2E/	-pra	1c\	-pra	2g/	-pra
=120-	=120-	=120-	=120-	=120-	=120-	=120-	=120-
.	.	1D	pe-	.	.	1g	pa-
!	!	!	!	!LO:N:acc=#	!	!	!
.	.	.	.	2Bn/	pe-	.	.
=121-	=121-	=121-	=121-	=121-	=121-	=121-	=121-
00C	-tram.	00C	-tram.	00c	-tram/	00e	-trem
=122-	=122-	=122-	=122-	=122-	=122-	=122-	=122-
.	.	.	.	.	.	.	.
=123-	=123-	=123-	=123-	=123-	=123-	=123-	=123-
.	.	.	.	.	.	.	.
=124-	=124-	=124-	=124-	=124-	=124-	=124-	=124-
.	.	.	.	.	.	.	.
=-	=-	=-	=-	=-	=-	=-	=-
*-	*-	*-	*-	*-	*-	*-	*-
!!!system-decoration: [(s1,s2,s3,s4)]
!!!ENC: Marta Opryszak
!!!END: 2022-07-06
!!!ENC: Urszula Świątek
!!!END: 2022-07-27
